static/logos/lyft-glyph-color.svg

<svg width="82" height="58" viewBox="0 0 82 58" fill="none" xmlns="http://www.w3.org/2000/svg">
<g clip-path="url(#clip0_1_2104)">
<path fill-rule="evenodd" clip-rule="evenodd" d="M0 0.690339H12.4521V34.1561C12.4521 39.4522 14.8713 42.607 16.7843 43.9593C14.759 45.7621 8.57025 47.3397 3.95684 43.5084C1.23692 41.2501 0 37.5365 0 34.0433V0.690339ZM77.8207 28.4896V24.9727H81.6185V12.6345H77.4479C75.8469 5.22689 69.2612 -0.323914 61.3853 -0.323914C52.3121 -0.323914 44.9573 7.04176 44.9573 16.1273V44.9408C47.5421 45.3046 50.6216 44.8956 53.2417 42.7198C55.9612 40.4611 57.1981 36.7479 57.1981 33.2547V32.1931H63.4171V19.8549H57.1981V16.1273H57.213C57.213 13.82 59.0808 11.9496 61.3853 11.9496C63.6893 11.9496 65.5645 13.82 65.5645 16.1273V28.4896C65.5645 37.5751 72.9273 44.9408 82 44.9408V32.6673C79.696 32.6673 77.8207 30.7968 77.8207 28.4896ZM30.6601 12.6345V30.7421C30.6601 31.77 29.8084 32.6034 28.7575 32.6034C27.7066 32.6034 26.8549 31.77 26.8549 30.7421V12.6345H14.5337V33.9309C14.5337 37.7618 15.8311 42.607 21.7353 44.1845C27.6457 45.7638 31.0744 42.4945 31.0744 42.4945C30.762 44.6483 28.7364 46.2259 25.4734 46.564C23.0045 46.8195 19.8472 46.0007 18.2722 45.3245V56.6074C22.2854 57.7925 26.5301 58.1754 30.6841 57.3682C38.2229 55.9034 42.9809 49.5935 42.9809 41.1986V12.6345H30.6601Z" fill="#EA0B8C"/>
</g>
<defs>
<clipPath id="clip0_1_2104">
<rect width="82" height="58" fill="white"/>
</clipPath>
</defs>
</svg>

<svg xmlns="http://www.w3.org/2000/svg" width="90.483" height="64" fill="none" viewBox="0 0 82 58"><g clip-path="url(#a)"><path fill="#EA0B8C" fill-rule="evenodd" d="M0 .69h12.452v33.466c0 5.296 2.42 8.451 4.332 9.803-2.025 1.803-8.214 3.38-12.827-.45C1.237 41.25 0 37.535 0 34.042V.69Zm77.82 27.8v-3.517h3.799V12.635h-4.171C75.847 5.226 69.26-.325 61.385-.325c-9.073 0-16.428 7.366-16.428 16.451v28.814c2.585.364 5.665-.045 8.285-2.221 2.72-2.259 3.956-5.972 3.956-9.465v-1.062h6.22V19.855h-6.22v-3.728h.015a4.175 4.175 0 1 1 8.351 0V28.49c0 9.085 7.363 16.45 16.436 16.45V32.668a4.181 4.181 0 0 1-4.18-4.177ZM30.66 12.635v18.107c0 1.028-.852 1.861-1.902 1.861-1.051 0-1.903-.833-1.903-1.86V12.634H14.534V33.93c0 3.83 1.297 8.676 7.201 10.254 5.91 1.579 9.34-1.69 9.34-1.69-.313 2.153-2.339 3.73-5.602 4.069-2.468.255-5.626-.563-7.2-1.24v11.283c4.012 1.185 8.257 1.568 12.411.761 7.539-1.465 12.297-7.775 12.297-16.17V12.635H30.66Z" clip-rule="evenodd"/></g><defs><clipPath id="a"><path fill="#fff" d="M0 0h82v58H0z"/></clipPath></defs></svg>
